_theme_inc/images/logos/x1.svg

<svg height="181.818182" viewBox="0 0 400 181.81818182" width="400" xmlns="http://www.w3.org/2000/svg"><path d="m56.727 37.524c0 .66 7.578 13.977 25.828 45.385 3.117 5.365 23.156 40.063 30.347 52.548l5.762 10.003 92.812-.185 92.812-.184 8.59-14.909c4.725-8.2 8.818-15.399 9.094-15.999.277-.599 10.261-18.108 22.187-38.909l21.683-37.819-51.829-.187-51.829-.187-3.942 4.187c-2.169 2.303-7.513 7.95-11.876 12.55l-7.934 8.364 14.442.363 14.443.364-10.443 18.546c-5.743 10.2-11.351 20.181-12.462 22.181-1.11 2-2.933 5.273-4.05 7.273s-4.404 7.891-7.305 13.091c-2.9 5.2-5.879 10.522-6.62 11.826l-1.346 2.371-13.726-.19-13.726-.189-28.819-50.352-28.82-50.351-41.636-.012c-22.9-.007-41.637.183-41.637.421m97.559 2.294c3.911 6.953 19.343 34.63 22.303 40 1.819 3.3 3.517 6 3.772 6s5.489-5.154 11.632-11.454c6.142-6.3 16.916-17.264 23.943-24.364l12.776-12.909h-37.98-37.98zm-17.19 7.273c.784 1.5 2.377 4.364 3.54 6.364 5.85 10.064 19.405 33.66 23.396 40.727 2.484 4.4 9.106 16.018 14.715 25.818l10.199 17.818-32.751.189c-30.552.177-32.814.104-33.688-1.09-.516-.705-5.828-9.79-11.806-20.19-5.977-10.4-17.018-29.545-24.534-42.545-7.517-13-14.462-25.027-15.434-26.727l-1.766-3.091h33.351 33.351zm59.577 11.818c-16.521 16.688-14.714 15.512-17.035 11.091-.997-1.9-4.364-7.961-7.482-13.47-3.117-5.508-5.854-10.499-6.081-11.091-.359-.935 2.553-1.075 22.293-1.075h22.704zm156.054-14.122c0 .232-1.145 2.377-2.545 4.766s-2.546 4.521-2.546 4.737c0 .217-.607 1.263-1.349 2.325-.743 1.062-3.819 6.349-6.837 11.749s-9.164 16.2-13.659 24c-4.494 7.8-9.1 15.854-10.236 17.898s-5.141 9.081-8.901 15.636l-6.837 11.92-32.817.189c-18.05.104-32.818.023-32.818-.181 0-.357 5.552-10.439 15.423-28.008 2.585-4.6 5.695-10.163 6.912-12.363s3.952-7.11 6.077-10.91 6.88-12.309 10.566-18.909l6.703-12-12.104-.363-12.103-.364 4.998-5.273 4.998-5.272h43.538c23.945 0 43.537.19 43.537.423m-278.648 51.031c-.635.7-12.101 12.155-25.481 25.455l-24.326 24.182h40.955c22.525 0 40.955-.255 40.955-.566s-.45-1.211-.999-2c-.87-1.248-12.404-20.591-16.743-28.077-.842-1.453-3.822-6.598-6.622-11.432-5.295-9.143-5.831-9.667-7.739-7.562m3.547 15.273c1.586 2.7 5.714 9.701 9.174 15.558s6.291 10.848 6.291 11.091-11.504.442-25.565.442h-25.565l16.292-15.969c8.961-8.783 16.337-15.983 16.391-16 .055-.017 1.397 2.178 2.982 4.878" fill="#4d4d4d" fill-rule="evenodd"/></svg>

<?xml version="1.0" encoding="UTF-8" standalone="no"?>
<svg
   xmlns:dc="http://purl.org/dc/elements/1.1/"
   xmlns:cc="http://creativecommons.org/ns#"
   xmlns:rdf="http://www.w3.org/1999/02/22-rdf-syntax-ns#"
   xmlns:svg="http://www.w3.org/2000/svg"
   xmlns="http://www.w3.org/2000/svg"
   xmlns:sodipodi="http://sodipodi.sourceforge.net/DTD/sodipodi-0.dtd"
   xmlns:inkscape="http://www.inkscape.org/namespaces/inkscape"
   id="svg"
   width="400"
   height="181.8181818181818"
   viewBox="0, 0, 400,181.8181818181818"
   version="1.1"
   sodipodi:docname="x1.svg"
   inkscape:version="0.92.4 (5da689c313, 2019-01-14)">
  <metadata
     id="metadata9">
    <rdf:RDF>
      <cc:Work
         rdf:about="">
        <dc:format>image/svg+xml</dc:format>
        <dc:type
           rdf:resource="http://purl.org/dc/dcmitype/StillImage" />
      </cc:Work>
    </rdf:RDF>
  </metadata>
  <defs
     id="defs7" />
  <sodipodi:namedview
     pagecolor="#ffffff"
     bordercolor="#666666"
     borderopacity="1"
     objecttolerance="10"
     gridtolerance="10"
     guidetolerance="10"
     inkscape:pageopacity="0"
     inkscape:pageshadow="2"
     inkscape:window-width="640"
     inkscape:window-height="480"
     id="namedview5"
     showgrid="false"
     inkscape:zoom="1.3222897"
     inkscape:cx="-71.994117"
     inkscape:cy="112.36"
     inkscape:current-layer="svg" />
  <g
     id="svgg"
     style="fill:#4d4d4d">
    <path
       id="path0"
       d="M56.727 37.524 C 56.727 38.184,64.305 51.501,82.555 82.909 C 85.672 88.274,105.711 122.972,112.902 135.457 L 118.664 145.460 211.476 145.275 L 304.288 145.091 312.878 130.182 C 317.603 121.982,321.696 114.783,321.972 114.183 C 322.249 113.584,332.233 96.075,344.159 75.274 L 365.842 37.455 314.013 37.268 L 262.184 37.081 258.242 41.268 C 256.073 43.571,250.729 49.218,246.366 53.818 L 238.432 62.182 252.874 62.545 L 267.317 62.909 256.874 81.455 C 251.131 91.655,245.523 101.636,244.412 103.636 C 243.302 105.636,241.479 108.909,240.362 110.909 C 239.245 112.909,235.958 118.800,233.057 124.000 C 230.157 129.200,227.178 134.522,226.437 135.826 L 225.091 138.197 211.365 138.007 L 197.639 137.818 168.820 87.466 L 140.000 37.115 98.364 37.103 C 75.464 37.096,56.727 37.286,56.727 37.524 M154.286 39.818 C 158.197 46.771,173.629 74.448,176.589 79.818 C 178.408 83.118,180.106 85.818,180.361 85.818 C 180.616 85.818,185.850 80.664,191.993 74.364 C 198.135 68.064,208.909 57.100,215.936 50.000 L 228.712 37.091 190.732 37.091 L 152.752 37.091 154.286 39.818 M137.096 47.091 C 137.880 48.591,139.473 51.455,140.636 53.455 C 146.486 63.519,160.041 87.115,164.032 94.182 C 166.516 98.582,173.138 110.200,178.747 120.000 L 188.946 137.818 156.195 138.007 C 125.643 138.184,123.381 138.111,122.507 136.917 C 121.991 136.212,116.679 127.127,110.701 116.727 C 104.724 106.327,93.683 87.182,86.167 74.182 C 78.650 61.182,71.705 49.155,70.733 47.455 L 68.967 44.364 102.318 44.364 L 135.669 44.364 137.096 47.091 M196.673 58.909 C 180.152 75.597,181.959 74.421,179.638 70.000 C 178.641 68.100,175.274 62.039,172.156 56.530 C 169.039 51.022,166.302 46.031,166.075 45.439 C 165.716 44.504,168.628 44.364,188.368 44.364 L 211.072 44.364 196.673 58.909 M352.727 44.787 C 352.727 45.019,351.582 47.164,350.182 49.553 C 348.782 51.942,347.636 54.074,347.636 54.290 C 347.636 54.507,347.029 55.553,346.287 56.615 C 345.544 57.677,342.468 62.964,339.450 68.364 C 336.432 73.764,330.286 84.564,325.791 92.364 C 321.297 100.164,316.691 108.218,315.555 110.262 C 314.419 112.306,310.414 119.343,306.654 125.898 L 299.817 137.818 267.000 138.007 C 248.950 138.111,234.182 138.030,234.182 137.826 C 234.182 137.469,239.734 127.387,249.605 109.818 C 252.190 105.218,255.300 99.655,256.517 97.455 C 257.734 95.255,260.469 90.345,262.594 86.545 C 264.719 82.745,269.474 74.236,273.160 67.636 L 279.863 55.636 267.759 55.273 L 255.656 54.909 260.654 49.636 L 265.652 44.364 309.190 44.364 C 333.135 44.364,352.727 44.554,352.727 44.787 M74.079 95.818 C 73.444 96.518,61.978 107.973,48.598 121.273 L 24.272 145.455 65.227 145.455 C 87.752 145.455,106.182 145.200,106.182 144.889 C 106.182 144.578,105.732 143.678,105.183 142.889 C 104.313 141.641,92.779 122.298,88.440 114.812 C 87.598 113.359,84.618 108.214,81.818 103.380 C 76.523 94.237,75.987 93.713,74.079 95.818 M77.626 111.091 C 79.212 113.791,83.340 120.792,86.800 126.649 C 90.260 132.506,93.091 137.497,93.091 137.740 C 93.091 137.983,81.587 138.182,67.526 138.182 L 41.961 138.182 58.253 122.213 C 67.214 113.430,74.590 106.230,74.644 106.213 C 74.699 106.196,76.041 108.391,77.626 111.091 "
       stroke="none"
       fill="#000000"
       fill-rule="evenodd"
       style="fill:#4d4d4d" />
  </g>
</svg>
